resources/svg/projects/Chess.svg

<svg xmlns="http://www.w3.org/2000/svg" viewBox="0 0 384 512" style="fill: #56dcfc;"><!--! Font Awesome Pro 6.1.1 by @fontawesome - https://fontawesome.com License - https://fontawesome.com/license (Commercial License) Copyright 2022 Fonticons, Inc. --><path d="M19 272.5l40.62 18C63.78 292.3 68.25 293.3 72.72 293.3c4 0 8.001-.7543 11.78-2.289l12.75-5.125c9.125-3.625 16-11.12 18.75-20.5L125.2 234.8C127 227.9 131.5 222.2 137.9 219.1L160 208v50.38C160 276.5 149.6 293.1 133.4 301.2L76.25 329.9C49.12 343.5 32 371.1 32 401.5V416h319.9l-.0417-192c0-105.1-85.83-192-191.8-192H12C5.375 32 0 37.38 0 44c0 2.625 .625 5.25 1.75 7.625L16 80L7 89C2.5 93.5 0 99.62 0 106V243.2C0 255.9 7.5 267.4 19 272.5zM52 128C63 128 72 137 72 148S63 168 52 168S32 159 32 148S41 128 52 128zM336 448H47.1C21.49 448 0 469.5 0 495.1C0 504.8 7.163 512 16 512h352c8.837 0 16-7.163 16-16C384 469.5 362.5 448 336 448z"/></svg>

<?xml version="1.0" encoding="utf-8"?>
<!-- Generator: Adobe Illustrator 25.4.0, SVG Export Plug-In . SVG Version: 6.00 Build 0)  -->
<svg version="1.1" id="Calque_1" xmlns="http://www.w3.org/2000/svg" xmlns:xlink="http://www.w3.org/1999/xlink" x="0px" y="0px"
	 viewBox="0 0 384 512" style="enable-background:new 0 0 384 512;" xml:space="preserve">
<style type="text/css">
	.st0{fill:#56DCFC;}
</style>
<path class="st0" d="M19,272.5l40.6,18c4.2,1.8,8.6,2.8,13.1,2.8c4,0,8-0.8,11.8-2.3l12.8-5.1c9.1-3.6,16-11.1,18.8-20.5l9.2-30.6
	c1.8-6.9,6.3-12.6,12.7-15.7L160,208v50.4c0,18.1-10.4,34.7-26.6,42.8l-57.1,28.7C49.1,343.5,32,371.1,32,401.5V416h319.9l0-192
	c0-105.1-85.8-192-191.8-192H12C5.4,32,0,37.4,0,44c0,2.6,0.6,5.2,1.8,7.6L16,80l-9,9c-4.5,4.5-7,10.6-7,17v137.2
	C0,255.9,7.5,267.4,19,272.5z M52,128c11,0,20,9,20,20s-9,20-20,20s-20-9-20-20S41,128,52,128z M336,448H47.1
	C21.5,448,0,469.5,0,495.1c0,9.7,7.2,16.9,16,16.9h352c8.8,0,16-7.2,16-16C384,469.5,362.5,448,336,448z"/>
</svg>
